img/star.svg

<svg width="174" height="174" viewBox="0 0 174 174" fill="none" xmlns="http://www.w3.org/2000/svg">
<g filter="url(#filter0_b_53_642)">
<path d="M81.0864 3.49066C84.2596 0.00782156 89.7404 0.00781965 92.9136 3.49066L102.181 13.6622C104.286 15.9726 107.544 16.8455 110.522 15.8972L123.633 11.722C128.123 10.2924 132.869 13.0328 133.876 17.6356L136.816 31.078C137.484 34.1314 139.869 36.5163 142.922 37.1841L156.364 40.124C160.967 41.1306 163.708 45.8772 162.278 50.3667L158.103 63.4781C157.154 66.4563 158.027 69.7141 160.338 71.8191L170.509 81.0864C173.992 84.2596 173.992 89.7404 170.509 92.9136L160.338 102.181C158.027 104.286 157.154 107.544 158.103 110.522L162.278 123.633C163.708 128.123 160.967 132.869 156.364 133.876L142.922 136.816C139.869 137.484 137.484 139.869 136.816 142.922L133.876 156.364C132.869 160.967 128.123 163.708 123.633 162.278L110.522 158.103C107.544 157.154 104.286 158.027 102.181 160.338L92.9136 170.509C89.7404 173.992 84.2596 173.992 81.0864 170.509L71.8191 160.338C69.7141 158.027 66.4563 157.154 63.4781 158.103L50.3667 162.278C45.8772 163.708 41.1306 160.967 40.124 156.364L37.1841 142.922C36.5163 139.869 34.1314 137.484 31.078 136.816L17.6356 133.876C13.0328 132.869 10.2924 128.123 11.722 123.633L15.8972 110.522C16.8455 107.544 15.9726 104.286 13.6622 102.181L3.49066 92.9136C0.00782156 89.7404 0.00781965 84.2596 3.49066 81.0864L13.6622 71.8191C15.9726 69.7141 16.8455 66.4563 15.8972 63.4781L11.722 50.3667C10.2924 45.8772 13.0328 41.1306 17.6356 40.124L31.078 37.1841C34.1314 36.5163 36.5163 34.1314 37.1841 31.078L40.124 17.6356C41.1306 13.0328 45.8772 10.2924 50.3667 11.722L63.4781 15.8972C66.4563 16.8455 69.7141 15.9726 71.8191 13.6622L81.0864 3.49066Z" fill="#9400B5" fill-opacity="0.05"/>
<path d="M81.8256 4.16414C84.6021 1.11666 89.3979 1.11666 92.1744 4.16414L101.442 14.3357C103.81 16.9349 107.475 17.9169 110.825 16.85L123.937 12.6748C127.865 11.4239 132.018 13.8218 132.899 17.8493L135.839 31.2917C136.59 34.7268 139.273 37.4097 142.708 38.161L156.151 41.1009C160.178 41.9817 162.576 46.1349 161.325 50.0632L157.15 63.1747C156.083 66.5252 157.065 70.1902 159.664 72.5583L169.836 81.8256C172.883 84.6021 172.883 89.3979 169.836 92.1744L159.664 101.442C157.065 103.81 156.083 107.475 157.15 110.825L161.325 123.937C162.576 127.865 160.178 132.018 156.151 132.899L142.708 135.839C139.273 136.59 136.59 139.273 135.839 142.708L132.899 156.151C132.018 160.178 127.865 162.576 123.937 161.325L110.825 157.15C107.475 156.083 103.81 157.065 101.442 159.664L92.1744 169.836C89.3979 172.883 84.6021 172.883 81.8256 169.836L72.5583 159.664C70.1902 157.065 66.5252 156.083 63.1747 157.15L50.0632 161.325C46.1349 162.576 41.9817 160.178 41.1009 156.151L38.161 142.708C37.4097 139.273 34.7268 136.59 31.2917 135.839L17.8493 132.899C13.8218 132.018 11.4239 127.865 12.6748 123.937L16.85 110.825C17.9169 107.475 16.9349 103.81 14.3357 101.442L4.16414 92.1744C1.11666 89.3979 1.11666 84.6021 4.16414 81.8256L14.3357 72.5583C16.9349 70.1902 17.9169 66.5252 16.85 63.1747L12.6748 50.0632C11.4239 46.1349 13.8218 41.9817 17.8492 41.1009L31.2917 38.161C34.7267 37.4097 37.4097 34.7268 38.161 31.2917L41.1009 17.8493C41.9817 13.8218 46.1349 11.4239 50.0632 12.6748L63.1747 16.85C66.5252 17.9169 70.1902 16.9349 72.5583 14.3357L81.8256 4.16414Z" stroke="#9400B5" stroke-opacity="0.5" stroke-width="2"/>
</g>
<defs>
<filter id="filter0_b_53_642" x="-23.1216" y="-23.1215" width="220.243" height="220.243" filterUnits="userSpaceOnUse" color-interpolation-filters="sRGB">
<feFlood flood-opacity="0" result="BackgroundImageFix"/>
<feGaussianBlur in="BackgroundImage" stdDeviation="12"/>
<feComposite in2="SourceAlpha" operator="in" result="effect1_backgroundBlur_53_642"/>
<feBlend mode="normal" in="SourceGraphic" in2="effect1_backgroundBlur_53_642" result="shape"/>
</filter>
</defs>
</svg>

<svg width="174" height="174" fill="none" xmlns="http://www.w3.org/2000/svg"><g filter="url(#filter0_b_53_642)"><path d="M81.086 3.49C84.26.009 89.74.009 92.914 3.49l9.267 10.172a8 8 0 008.341 2.235l13.111-4.175c4.49-1.43 9.236 1.31 10.243 5.914l2.94 13.442a8 8 0 006.106 6.106l13.442 2.94c4.603 1.007 7.344 5.753 5.914 10.243l-4.175 13.111a7.998 7.998 0 002.235 8.341l10.171 9.267c3.483 3.174 3.483 8.654 0 11.828l-10.171 9.267a7.998 7.998 0 00-2.235 8.341l4.175 13.111c1.43 4.49-1.311 9.236-5.914 10.243l-13.442 2.94a8.002 8.002 0 00-6.106 6.106l-2.94 13.442c-1.007 4.603-5.753 7.344-10.243 5.914l-13.111-4.175a7.998 7.998 0 00-8.341 2.235l-9.267 10.171c-3.174 3.483-8.654 3.483-11.828 0l-9.267-10.171a7.998 7.998 0 00-8.34-2.235l-13.112 4.175c-4.49 1.43-9.236-1.311-10.243-5.914l-2.94-13.442a8 8 0 00-6.106-6.106l-13.442-2.94c-4.603-1.007-7.344-5.753-5.914-10.243l4.175-13.111a8 8 0 00-2.235-8.341L3.491 92.914C.008 89.74.008 84.26 3.49 81.086l10.171-9.267a8 8 0 002.235-8.34l-4.175-13.112c-1.43-4.49 1.31-9.236 5.914-10.243l13.442-2.94a8 8 0 006.106-6.106l2.94-13.442c1.007-4.603 5.753-7.344 10.243-5.914l13.111 4.175a8 8 0 008.341-2.235l9.267-10.171z" fill="#9400B5" fill-opacity=".05"/><path d="M81.826 4.164c2.776-3.047 7.572-3.047 10.348 0l9.268 10.172a9 9 0 009.383 2.514l13.112-4.175c3.928-1.251 8.081 1.147 8.962 5.174l2.94 13.443a9 9 0 006.869 6.869l13.443 2.94c4.027.88 6.425 5.034 5.174 8.962l-4.175 13.112a9 9 0 002.514 9.383l10.172 9.268c3.047 2.776 3.047 7.572 0 10.348l-10.172 9.268a9 9 0 00-2.514 9.383l4.175 13.112c1.251 3.928-1.147 8.081-5.174 8.962l-13.443 2.94a8.999 8.999 0 00-6.869 6.869l-2.94 13.443c-.881 4.027-5.034 6.425-8.962 5.174l-13.112-4.175a9 9 0 00-9.383 2.514l-9.268 10.172c-2.776 3.047-7.572 3.047-10.348 0l-9.268-10.172a9 9 0 00-9.383-2.514l-13.112 4.175c-3.928 1.251-8.081-1.147-8.962-5.174l-2.94-13.443a9 9 0 00-6.87-6.869l-13.442-2.94c-4.027-.881-6.425-5.034-5.174-8.962l4.175-13.112a9 9 0 00-2.514-9.383L4.164 92.174c-3.047-2.776-3.047-7.572 0-10.348l10.172-9.268a9 9 0 002.514-9.383l-4.175-13.112c-1.251-3.928 1.147-8.081 5.174-8.962l13.443-2.94a9 9 0 006.869-6.87l2.94-13.442c.88-4.027 5.034-6.425 8.962-5.174l13.112 4.175a9 9 0 009.383-2.514l9.268-10.172z" stroke="#9400B5" stroke-opacity=".5" stroke-width="2"/></g><defs><filter id="filter0_b_53_642" x="-23.122" y="-23.122" width="220.243" height="220.243" filterUnits="userSpaceOnUse" color-interpolation-filters="sRGB"><feFlood flood-opacity="0" result="BackgroundImageFix"/><feGaussianBlur in="BackgroundImage" stdDeviation="12"/><feComposite in2="SourceAlpha" operator="in" result="effect1_backgroundBlur_53_642"/><feBlend in="SourceGraphic" in2="effect1_backgroundBlur_53_642" result="shape"/></filter></defs></svg>
